assets/images/logo-edutainement.svg

<svg fill="none" height="66" viewBox="0 0 146 66" width="146" xmlns="http://www.w3.org/2000/svg"><g fill="#fff"><path d="m0 .555542v64.814858h12.8145v-20.9833c0-2.5179 2.2025-4.5696 4.9056-4.5696 2.703 0 4.9055 2.0517 4.9055 4.5696v20.9833h7.7087v-20.9833c0-2.5179 2.2025-4.5696 4.9056-4.5696s4.9055 2.0517 4.9055 4.5696v20.9833h7.5085v-20.9833c0-2.5179 2.2025-4.5696 4.9056-4.5696s4.9056 2.0517 4.9056 4.5696v20.9833h12.414v-64.814858z"/><path d="m93.8575 51.1018h-.4005v.8394h.4005c.3003 0 .4005-.0933.4005-.3731s-.1002-.4663-.4005-.4663z"/><path d="m91.0544 14.9175v-2.518c0-.4663-.2002-.6528-.7008-.6528h-.7008v3.8236h.7008c.5006 0 .7008-.1865.7008-.6528z"/><path d="m98.5635 53.0603h.5005l-.3003-1.1191z"/><path d="m107.373 53.0603h.6l-.3-1.1191z"/><path d="m124.292 53.0603h.601l-.301-1.1191z"/><path d="m134.103 29.186c0-1.5854-.901-2.4248-2.603-2.4248h-2.603v4.7562h2.603c1.702.0933 2.603-.746 2.603-2.3314z"/><path d="m105.571 12.9591-.5 1.6786h1.001z"/><path d="m75.8364.555542v64.814858h69.6786v-64.814858zm58.6666 9.885458h4.105v1.3056h-1.402v5.1292h-1.402v-5.1292h-1.401v-1.3056zm-5.506 0h1.401l1.502 3.3573v-3.3573h1.402v6.4348h-1.402l-1.502-3.3573v3.3573h-1.401zm-5.306 0h4.104v1.3056h-2.703v1.3056h2.203v1.3056h-2.203v1.3057h2.703v1.3056h-4.104zm-6.708 0h1.602l1.201 4.2899 1.202-4.2899h1.601v6.4348h-1.401v-2.518l-.901 2.518h-1.101l-.901-2.518v2.518h-1.402v-6.4348zm-5.506 0h1.401l1.502 3.3573v-3.3573h1.402v6.4348h-1.402l-1.502-3.3573v3.3573h-1.401zm-2.503 0h1.402v6.4348h-1.402zm-5.907 6.3416 1.802-6.3416h1.402l1.802 6.3416h-1.402l-.3-.9326h-1.602l-.3.9326zm-4.2045-6.3416h4.1045v1.3056h-1.401v5.1292h-1.402v-5.1292h-1.4016v-1.3056zm-5.306 0h1.4016v4.4764c0 .4663.2002.6528.7008.6528s.7008-.1865.7008-.6528v-4.4764h1.3015v4.4764c0 1.3056-.7008 1.9584-2.1024 1.9584s-2.1024-.6528-2.1024-1.9584v-4.4764zm-5.306 0h2.1024c1.4016 0 2.1024.6528 2.1024 1.9584v2.518c0 1.3056-.7008 1.9584-2.1024 1.9584h-2.1024zm-5.2059 0h4.1046v1.3056h-2.703v1.3056h2.2025v1.3056h-2.2025v1.3057h2.703v1.3056h-4.1046zm2.7031 41.1271h-.9011v-.0933c0-.2798-.1001-.373-.4004-.373-.3004 0-.4005.0932-.4005.373v1.6787c0 .2797.1001.373.4005.373.3003 0 .4004-.0933.4004-.373v-.3731h-.5005v-.8393h1.5017v1.3056c0 .8393-.5006 1.3056-1.4016 1.3056s-1.4016-.4663-1.4016-1.3056v-1.6786c0-.8394.5006-1.3057 1.4016-1.3057.901-.0932 1.3015.3731 1.3015 1.3057zm4.0045 2.9842-.2002-.6528h-1.1013l-.2002.6528h-1.0011v-.0932l1.2013-4.2899h1.0012l1.2013 4.2899h-.901zm4.7053 0-.5005-1.7719h-.1002-.4004v1.6787h-.901v-4.2899h1.4016c.901 0 1.4015.4663 1.4015 1.3056 0 .4663-.1001.7461-.4004 1.0258l.6007 2.0517zm5.0057 0-.2002-.6528h-1.1013l-.2002.6528h-1.0011v-.0932l1.2013-4.2899h1.0012l1.2011 4.2899h-.9008zm5.4058-4.2899-1.201 4.2899h-1.001l-1.202-4.2899h1.002l.7 2.518.701-2.518zm3.504 4.2899-.2-.6528h-1.101l-.2.6528h-1.002v-.0932l1.202-4.2899h1.001l1.201 4.2899h-.901zm5.306-2.9842h-1.001v-.0933c0-.2798-.1-.373-.4-.373-.301 0-.401.0932-.401.373v1.6787c0 .2797.1.373.401.373.3 0 .4-.0933.4-.373v-.3731h-.5v-.8393h1.501v1.3056c0 .8393-.5 1.3056-1.401 1.3056s-1.402-.4663-1.402-1.3056v-1.6786c0-.8394.501-1.3057 1.402-1.3057.901-.0932 1.401.3731 1.401 1.3057zm4.706 2.9842h-2.804v-4.2899h.901v3.4506h1.803v.8393zm2.803 0h-.901v-4.2899h.901zm4.104 0-.2-.6528h-1.101l-.2.6528h-1.001v-.0932l1.201-4.2899h1.001l1.201 4.2899h-.901zm3.705 0h-.901v-.8393h.901zm4.705-3.4505h-1.802v.8393h1.502v.8393h-1.502v.8394h1.802v.8393h-2.803v-4.2899h2.803zm4.605 2.1449c0 .8393-.5 1.3056-1.401 1.3056s-1.402-.4663-1.402-1.3056v-2.9843h.901v2.9843c0 .2798.1.3731.401.3731.3 0 .4-.0933.4-.3731v-2.9843h.901v2.9843zm.301-6.4348h-55.6635v-.5596h55.6635zm-46.7534-15.2012v-8.2068h3.7042v19.8641h-3.7042v-8.2067h-5.2059v8.2067h-3.7042v-19.8641h3.7042v8.2068zm5.9067 1.1191c0-1.0258.901-1.8652 2.0022-1.8652 1.1015 0 2.0025.8394 2.0025 1.8652s-.901 1.8652-2.0025 1.8652c-1.1012 0-2.0022-.9326-2.0022-1.8652zm12.6147 7.0877c1.701 0 2.603-.8394 2.603-2.4248v-13.9888h3.704v13.9888c0 3.9169-2.003 5.7821-6.207 5.7821-4.205 0-6.207-1.8652-6.207-5.7821v-13.9888h3.704v13.9888c-.2 1.5854.701 2.4248 2.403 2.4248zm8.81-7.0877c0-1.0258.901-1.8652 2.002-1.8652s2.002.8394 2.002 1.8652-.901 1.8652-2.002 1.8652-2.002-.9326-2.002-1.8652zm17.72.1865c1.101.9326 1.601 2.4247 1.601 4.4764 0 3.9169-2.002 5.7821-6.207 5.7821h-7.008v-19.7709h6.207c4.205 0 6.208 1.8652 6.208 5.7821 0 1.4921-.301 2.6112-.901 3.5438zm1.702-12.5899h-55.6635v-.5596h55.6635z"/><path d="m88.752 53.0603h.6006l-.3003-1.1191z"/><path d="m132.301 34.9683h-3.404v4.7561h3.404c1.702 0 2.603-.8393 2.603-2.4247 0-1.4921-.901-2.3314-2.603-2.3314z"/></g></svg>

<svg width="146" height="66" viewBox="0 0 146 66" fill="none" xmlns="http://www.w3.org/2000/svg">
<path d="M0 0.555542V65.3704H12.8145V44.3871C12.8145 41.8692 15.017 39.8175 17.7201 39.8175C20.4231 39.8175 22.6256 41.8692 22.6256 44.3871V65.3704H30.3343V44.3871C30.3343 41.8692 32.5368 39.8175 35.2399 39.8175C37.943 39.8175 40.1454 41.8692 40.1454 44.3871V65.3704H47.6539V44.3871C47.6539 41.8692 49.8564 39.8175 52.5595 39.8175C55.2626 39.8175 57.4651 41.8692 57.4651 44.3871V65.3704H69.8791V0.555542H0Z" fill="white"/>
<path d="M93.8575 51.1018H93.457V51.9412H93.8575C94.1578 51.9412 94.258 51.8479 94.258 51.5681C94.258 51.2883 94.1578 51.1018 93.8575 51.1018Z" fill="white"/>
<path d="M91.0544 14.9175V12.3995C91.0544 11.9332 90.8542 11.7467 90.3536 11.7467H89.6528V15.5703H90.3536C90.8542 15.5703 91.0544 15.3838 91.0544 14.9175Z" fill="white"/>
<path d="M98.5635 53.0603H99.064L98.7637 51.9412L98.5635 53.0603Z" fill="white"/>
<path d="M107.373 53.0603H107.973L107.673 51.9412L107.373 53.0603Z" fill="white"/>
<path d="M124.292 53.0603H124.893L124.592 51.9412L124.292 53.0603Z" fill="white"/>
<path d="M134.103 29.186C134.103 27.6006 133.202 26.7612 131.5 26.7612H128.897V31.5174H131.5C133.202 31.6107 134.103 30.7714 134.103 29.186Z" fill="white"/>
<path d="M105.571 12.9591L105.071 14.6377H106.072L105.571 12.9591Z" fill="white"/>
<path d="M75.8364 0.555542V65.3704H145.515V0.555542H75.8364ZM134.503 10.441H138.608V11.7466H137.206V16.8758H135.804V11.7466H134.403V10.441H134.503ZM128.997 10.441H130.398L131.9 13.7983V10.441H133.302V16.8758H131.9L130.398 13.5185V16.8758H128.997V10.441ZM123.691 10.441H127.795V11.7466H125.092V13.0522H127.295V14.3578H125.092V15.6635H127.795V16.9691H123.691V10.441ZM116.983 10.441H118.585L119.786 14.7309L120.988 10.441H122.589V16.8758H121.188V14.3578L120.287 16.8758H119.186L118.285 14.3578V16.8758H116.883V10.441H116.983ZM111.477 10.441H112.878L114.38 13.7983V10.441H115.782V16.8758H114.38L112.878 13.5185V16.8758H111.477V10.441ZM108.974 10.441H110.376V16.8758H108.974V10.441ZM103.067 16.7826L104.869 10.441H106.271L108.073 16.7826H106.671L106.371 15.85H104.769L104.469 16.7826H103.067ZM98.8625 10.441H102.967V11.7466H101.566V16.8758H100.164V11.7466H98.7624V10.441H98.8625ZM93.5565 10.441H94.9581V14.9174C94.9581 15.3837 95.1583 15.5702 95.6589 15.5702C96.1595 15.5702 96.3597 15.3837 96.3597 14.9174V10.441H97.6612V14.9174C97.6612 16.223 96.9604 16.8758 95.5588 16.8758C94.1572 16.8758 93.4564 16.223 93.4564 14.9174V10.441H93.5565ZM88.2505 10.441H90.3529C91.7545 10.441 92.4553 11.0938 92.4553 12.3994V14.9174C92.4553 16.223 91.7545 16.8758 90.3529 16.8758H88.2505V10.441ZM83.0446 10.441H87.1492V11.7466H84.4462V13.0522H86.6487V14.3578H84.4462V15.6635H87.1492V16.9691H83.0446V10.441ZM85.7477 51.5681H84.8466V51.4748C84.8466 51.195 84.7465 51.1018 84.4462 51.1018C84.1458 51.1018 84.0457 51.195 84.0457 51.4748V53.1535C84.0457 53.4332 84.1458 53.5265 84.4462 53.5265C84.7465 53.5265 84.8466 53.4332 84.8466 53.1535V52.7804H84.3461V51.9411H85.8478V53.2467C85.8478 54.086 85.3472 54.5523 84.4462 54.5523C83.5452 54.5523 83.0446 54.086 83.0446 53.2467V51.5681C83.0446 50.7287 83.5452 50.2624 84.4462 50.2624C85.3472 50.1692 85.7477 50.6355 85.7477 51.5681ZM89.7522 54.5523L89.552 53.8995H88.4507L88.2505 54.5523H87.2494V54.4591L88.4507 50.1692H89.4519L90.6532 54.4591H89.7522V54.5523ZM94.4575 54.5523L93.957 52.7804H93.8568H93.4564V54.4591H92.5554V50.1692H93.957C94.858 50.1692 95.3585 50.6355 95.3585 51.4748C95.3585 51.9411 95.2584 52.2209 94.9581 52.5006L95.5588 54.5523H94.4575ZM99.4632 54.5523L99.263 53.8995H98.1617L97.9615 54.5523H96.9604V54.4591L98.1617 50.1692H99.1629L100.364 54.4591H99.4632V54.5523ZM104.869 50.2624L103.668 54.5523H102.667L101.465 50.2624H102.467L103.167 52.7804L103.868 50.2624H104.869ZM108.373 54.5523L108.173 53.8995H107.072L106.872 54.5523H105.87V54.4591L107.072 50.1692H108.073L109.274 54.4591H108.373V54.5523ZM113.679 51.5681H112.678V51.4748C112.678 51.195 112.578 51.1018 112.278 51.1018C111.977 51.1018 111.877 51.195 111.877 51.4748V53.1535C111.877 53.4332 111.977 53.5265 112.278 53.5265C112.578 53.5265 112.678 53.4332 112.678 53.1535V52.7804H112.178V51.9411H113.679V53.2467C113.679 54.086 113.179 54.5523 112.278 54.5523C111.377 54.5523 110.876 54.086 110.876 53.2467V51.5681C110.876 50.7287 111.377 50.2624 112.278 50.2624C113.179 50.1692 113.679 50.6355 113.679 51.5681ZM118.385 54.5523H115.581V50.2624H116.482V53.713H118.285V54.5523H118.385ZM121.188 54.5523H120.287V50.2624H121.188V54.5523ZM125.292 54.5523L125.092 53.8995H123.991L123.791 54.5523H122.79V54.4591L123.991 50.1692H124.992L126.193 54.4591H125.292V54.5523ZM128.997 54.5523H128.096V53.713H128.997V54.5523ZM133.702 51.1018H131.9V51.9411H133.402V52.7804H131.9V53.6198H133.702V54.4591H130.899V50.1692H133.702V51.1018ZM138.307 53.2467C138.307 54.086 137.807 54.5523 136.906 54.5523C136.005 54.5523 135.504 54.086 135.504 53.2467V50.2624H136.405V53.2467C136.405 53.5265 136.505 53.6198 136.806 53.6198C137.106 53.6198 137.206 53.5265 137.206 53.2467V50.2624H138.107V53.2467H138.307ZM138.608 46.8119H82.9445V46.2523H138.608V46.8119ZM91.8546 31.6107V23.4039H95.5588V43.268H91.8546V35.0613H86.6487V43.268H82.9445V23.4039H86.6487V31.6107H91.8546ZM97.7613 32.7298C97.7613 31.704 98.6623 30.8646 99.7635 30.8646C100.865 30.8646 101.766 31.704 101.766 32.7298C101.766 33.7556 100.865 34.595 99.7635 34.595C98.6623 34.595 97.7613 33.6624 97.7613 32.7298ZM110.376 39.8175C112.077 39.8175 112.979 38.9781 112.979 37.3927V23.4039H116.683V37.3927C116.683 41.3096 114.68 43.1748 110.476 43.1748C106.271 43.1748 104.269 41.3096 104.269 37.3927V23.4039H107.973V37.3927C107.773 38.9781 108.674 39.8175 110.376 39.8175ZM119.186 32.7298C119.186 31.704 120.087 30.8646 121.188 30.8646C122.289 30.8646 123.19 31.704 123.19 32.7298C123.19 33.7556 122.289 34.595 121.188 34.595C120.087 34.595 119.186 33.6624 119.186 32.7298ZM136.906 32.9163C138.007 33.8489 138.507 35.341 138.507 37.3927C138.507 41.3096 136.505 43.1748 132.3 43.1748H125.292V23.4039H131.499C135.704 23.4039 137.707 25.2691 137.707 29.186C137.707 30.6781 137.406 31.7972 136.806 32.7298L136.906 32.9163ZM138.608 20.3264H82.9445V19.7668H138.608V20.3264Z" fill="white"/>
<path d="M88.752 53.0603H89.3526L89.0523 51.9412L88.752 53.0603Z" fill="white"/>
<path d="M132.301 34.9683H128.897V39.7244H132.301C134.003 39.7244 134.904 38.8851 134.904 37.2997C134.904 35.8076 134.003 34.9683 132.301 34.9683Z" fill="white"/>
</svg>
